svg/Filled/speed_filled.svg

<svg viewBox="0 0 24 24" xmlns="http://www.w3.org/2000/svg" width="24" height="24"><path fill-rule="evenodd" d="M12 1.1A10.9 10.9 0 0 1 22.9 12v.5a11 11 0 0 1-2.74 6.73l-.15.16a2.03 2.03 0 0 1-2.98 0 6.8 6.8 0 0 0-4.68-2.2H12a6.8 6.8 0 0 0-5.03 2.2 2 2 0 0 1-2.95.03L4 19.41v-.01l-.15-.16-.01-.01A10.9 10.9 0 0 1 12 1.1m2.45 8.08a.4.4 0 0 0-.22.07l-2.8 1.76a1.12 1.12 0 0 0 1.3 1.82q.15-.1.26-.26l1.76-2.8a.37.37 0 0 0-.09-.52.4.4 0 0 0-.21-.07M4.5 11.1a.9.9 0 0 0 0 1.8h1.1a.9.9 0 0 0 0-1.8zm14 0a.9.9 0 0 0 0 1.8h1.1a.9.9 0 0 0 0-1.8zM7.35 6.07a.9.9 0 0 0-1.28 1.27l.71.7.07.07A.9.9 0 0 0 8.1 6.84l-.06-.07zm10.6 0a.9.9 0 0 0-1.27 0l-.7.7-.07.07a.9.9 0 0 0 1.27 1.27l.07-.06.7-.71a.9.9 0 0 0 0-1.27M12 3.6c-.5 0-.9.4-.9.9v1.1a.9.9 0 0 0 1.8 0V4.5c0-.5-.4-.9-.9-.9" clip-rule="evenodd"/></svg>

<svg viewBox="0 0 24 24" xmlns="http://www.w3.org/2000/svg" width="24" height="24"><path fill-rule="evenodd" d="M12 1.1A10.9 10.9 0 0 1 22.9 12L22.9 12.5A11 11 0 0 1 20.16 19.23L20.01 19.39A2.03 2.03 0 0 1 17.03 19.39A6.8 6.8 0 0 0 12.35 17.19L12 17.19A6.8 6.8 0 0 0 6.97 19.39A2 2 0 0 1 4.02 19.42L3.84 19.23A10.9 10.9 0 0 1 12 1.1M14.45 9.18a.4.4 0 0 0-.22.07l-2.8 1.76a1.12 1.12 0 0 0 1.3 1.82q.15-.1.26-.26l1.76-2.8a.37.37 0 0 0-.09-.52.4.4 0 0 0-.21-.07M4.5 11.1a.9.9 0 0 0 0 1.8h1.1a.9.9 0 0 0 0-1.8zm14 0a.9.9 0 0 0 0 1.8h1.1a.9.9 0 0 0 0-1.8zM7.35 6.07A.9 .9 0 0 0 6.07 7.34L6.85 8.11A.9 .9 0 0 0 8.1 6.84L8.04 6.77ZM17.95 6.07A.9 .9 0 0 0 16.68 6.07L15.91 6.84A.9 .9 0 0 0 17.18 8.11L17.95 7.34A.9 .9 0 0 0 17.95 6.07M12 3.6c-.5 0-.9.4-.9.9v1.1a.9.9 0 0 0 1.8 0V4.5c0-.5-.4-.9-.9-.9" clip-rule="evenodd"/></svg>
